packages/gestalt/src/icons/sound.svg

<svg width="24" height="24" xmlns="http://www.w3.org/2000/svg"><path fill="#B5B5B5" d="M20.48 3.51A11.92 11.92 0 0 1 24 12c0 3.2-1.25 6.22-3.51 8.48-.25.25-.57.37-.89.37-.32 0-.64-.12-.88-.37-.49-.48-.49-1.27 0-1.76A9.465 9.465 0 0 0 21.5 12c0-2.54-.99-4.93-2.79-6.72-.48-.49-.48-1.28 0-1.77a1.25 1.25 0 0 1 1.77 0zM5 7.94v.02L12 1v22l-7-6.09v.03H2c-1.1 0-2-.9-2-2v-5a2 2 0 0 1 2-2h3zm11.95-.89A6.96 6.96 0 0 1 19 12c0 1.87-.73 3.63-2.05 4.95-.24.24-.56.36-.88.36-.32 0-.64-.12-.89-.36a1.25 1.25 0 0 1 0-1.77c.85-.85 1.32-1.98 1.32-3.18 0-1.2-.47-2.33-1.32-3.18a1.25 1.25 0 0 1 0-1.77 1.25 1.25 0 0 1 1.77 0z"/></svg>

<svg width="24" height="24" viewBox="0 0 24 24" xmlns="http://www.w3.org/2000/svg"><path fill="#aeaeae" d="M20.48,3.51 C22.75,5.78 24.00,8.79 24.00,12.00 C24.00,15.20 22.75,18.22 20.49,20.48 C20.24,20.73 19.92,20.85 19.60,20.85 C19.28,20.85 18.96,20.73 18.72,20.48 C18.23,20.00 18.23,19.21 18.72,18.72 C20.51,16.92 21.50,14.54 21.50,12.00 C21.50,9.46 20.51,7.07 18.71,5.28 C18.23,4.79 18.23,4.00 18.71,3.51 C19.20,3.02 19.99,3.02 20.48,3.51 Z M5.00,7.94 L5.00,7.96 L12.00,1.00 L12.00,23.00 L5.00,16.91 L5.00,16.94 L2.00,16.94 C0.90,16.94 0.00,16.04 0.00,14.94 L0.00,9.94 C0.00,8.83 0.90,7.94 2.00,7.94 L5.00,7.94 Z M16.95,7.05 C18.27,8.37 19.00,10.13 19.00,12.00 C19.00,13.87 18.27,15.63 16.95,16.95 C16.71,17.19 16.39,17.31 16.07,17.31 C15.75,17.31 15.43,17.19 15.18,16.95 C14.69,16.46 14.69,15.67 15.18,15.18 C16.03,14.33 16.50,13.20 16.50,12.00 C16.50,10.80 16.03,9.67 15.18,8.82 C14.69,8.33 14.69,7.54 15.18,7.05 C15.67,6.56 16.46,6.56 16.95,7.05 Z"/></svg>
